Papirus-Dark/16x16/actions/view-certificate.svg

<?xml version="1.0" encoding="UTF-8" standalone="no"?>
<!--Created with Inkscape (http://www.inkscape.org/)-->
<svg id="svg7384" xmlns:rdf="http://www.w3.org/1999/02/22-rdf-syntax-ns#" style="enable-background:new" xmlns="http://www.w3.org/2000/svg" height="16" width="16" version="1.1" xmlns:cc="http://creativecommons.org/ns#" xmlns:dc="http://purl.org/dc/elements/1.1/">
 <metadata id="metadata90">
  <rdf:RDF>
   <cc:Work rdf:about="">
    <dc:format>image/svg+xml</dc:format>
    <dc:type rdf:resource="http://purl.org/dc/dcmitype/StillImage"/>
   </cc:Work>
  </rdf:RDF>
 </metadata>
 <defs id="defs7386">
 </defs>
 <g id="layer12" transform="translate(-505 -20.997)">
  <path id="path4195" opacity="1" fill="#d3dae3" transform="translate(505 20.997)" d="m0 1v14c5.3333-0.002 10.667 0.006 16 0.004v-14c-5.333 0.0019-10.667-0.006-16-0.004zm9 2h6v1h-6v-1zm-5.5 1c0.831 0 1.5 0.669 1.5 1.5v1.5h1v3h-5v-3h1v-1.5c0-0.831 0.669-1.5 1.5-1.5zm0 1c-0.277 0-0.5 0.223-0.5 0.5v1.5h1v-1.5c0-0.277-0.223-0.5-0.5-0.5zm5.5 1h6v1h-6v-1zm0 3h6v1h-6v-1z"/>
 </g>
</svg>

<?xml version="1.0" encoding="UTF-8" standalone="no"?>
<svg xmlns="http://www.w3.org/2000/svg" width="16" height="16" viewBox="0 0 16 16">
 <defs>
  <style type="text/css" id="current-color-scheme">
   .ColorScheme-Text { color:#d3dae3; }
  </style>
 </defs>
 <path style="fill:currentColor;opacity:1" class="ColorScheme-Text" d="M 0 1 L 0 15 C 5.3333 14.998 10.667 15.005906 16 15.003906 L 16 1.0039062 C 10.667 1.0058063 5.333 0.998 0 1 z M 9 3 L 15 3 L 15 4 L 9 4 L 9 3 z M 3.5 4 C 4.331 4 5 4.669 5 5.5 L 5 7 L 6 7 L 6 10 L 1 10 L 1 7 L 2 7 L 2 5.5 C 2 4.669 2.669 4 3.5 4 z M 3.5 5 C 3.223 5 3 5.223 3 5.5 L 3 7 L 4 7 L 4 5.5 C 4 5.223 3.777 5 3.5 5 z M 9 6 L 15 6 L 15 7 L 9 7 L 9 6 z M 9 9 L 15 9 L 15 10 L 9 10 L 9 9 z"/>
</svg>
